packages/foundations/assets/icons/functional/images/business & payment/shopping_cart_disabled_20.svg

<svg width="20" height="20" viewBox="0 0 20 20" fill="none" xmlns="http://www.w3.org/2000/svg">
<g clip-path="url(#clip0_2202_1403)">
<path fill-rule="evenodd" clip-rule="evenodd" d="M8.23952 15.9931C8.40052 16.2031 8.49652 16.4661 8.49652 16.7501C8.49652 17.4381 7.93352 18.0001 7.24652 18.0001C6.97196 18.0027 6.70417 17.9148 6.48452 17.7501L8.23952 15.9931ZM13.9965 15.5001C14.6845 15.5001 15.2465 16.0631 15.2465 16.7501C15.2465 17.4381 14.6845 18.0001 13.9965 18.0001C13.3095 18.0001 12.7465 17.4371 12.7465 16.7501C12.7465 16.0621 13.3095 15.5001 13.9965 15.5001ZM3.90252 2.00008C4.84052 2.00008 5.59052 2.65608 5.80852 3.59408L5.90352 4.00008H14.5785L15.8125 2.76608L16.2965 2.28808C16.39 2.19575 16.5009 2.12277 16.6226 2.0733C16.7444 2.02384 16.8747 1.99885 17.0061 1.99978C17.1375 2.00071 17.2675 2.02753 17.3885 2.07872C17.5095 2.1299 17.6193 2.20444 17.7115 2.29808C18.0695 2.66108 18.1345 3.30808 17.7015 3.71208L4.70552 16.7101C4.61327 16.8056 4.50293 16.8818 4.38093 16.9342C4.25892 16.9866 4.1277 17.0142 3.99492 17.0153C3.86214 17.0165 3.73046 16.9912 3.60757 16.9409C3.48467 16.8906 3.37302 16.8164 3.27913 16.7225C3.18523 16.6286 3.11098 16.5169 3.0607 16.394C3.01042 16.2711 2.98512 16.1395 2.98627 16.0067C2.98742 15.8739 3.01501 15.7427 3.06742 15.6207C3.11983 15.4987 3.19601 15.3883 3.29152 15.2961C4.02552 14.5561 4.76152 13.8191 5.50052 13.0831L3.87152 4.00008H2.99652C2.43352 4.00008 1.99652 3.53108 1.99652 3.00008C1.99652 2.46908 2.46552 2.00008 2.99652 2.00008H3.90252ZM14.4965 13.0001C15.0595 13.0001 15.4965 13.4381 15.4965 14.0001C15.4965 14.4691 15.0585 15.0001 14.4965 15.0001H9.23252L11.2325 13.0001H14.4965ZM16.9945 7.23908L16.4025 9.78108C16.2155 10.5311 15.6525 11.2501 14.6525 11.3441L12.7065 11.5261L16.9945 7.23908ZM12.5785 6.00008H6.24652L6.99652 10.0631L8.68252 9.89908L12.5785 6.00008Z" fill="#1A1C1F"/>
</g>
<defs>
<clipPath id="clip0_2202_1403">
<rect width="20" height="20" fill="white"/>
</clipPath>
</defs>
</svg>

<svg xmlns="http://www.w3.org/2000/svg" width="20" height="20" fill="none"><g clip-path="url(#a)"><path fill="#1A1C1F" fill-rule="evenodd" d="M8.24 15.993c.16.21.257.473.257.757 0 .688-.563 1.25-1.25 1.25a1.25 1.25 0 0 1-.762-.25zm5.756-.493c.688 0 1.25.563 1.25 1.25S14.685 18 13.997 18s-1.25-.563-1.25-1.25.563-1.25 1.25-1.25M3.903 2c.938 0 1.688.656 1.906 1.594L5.904 4h8.675l1.233-1.234.485-.478a1 1 0 0 1 1.415.01c.358.363.422 1.01-.01 1.414L4.705 16.71a1 1 0 1 1-1.414-1.414q1.1-1.11 2.209-2.213L3.87 4h-.874c-.563 0-1-.469-1-1 0-.53.469-1 1-1zm10.593 11c.563 0 1 .438 1 1 0 .47-.437 1-1 1H9.234l2-2zm2.498-5.76-.591 2.541c-.187.75-.75 1.47-1.75 1.563l-1.947.182zM12.58 6H6.247l.75 4.063L8.683 9.9z" clip-rule="evenodd"/></g><defs><clipPath id="a"><path fill="#fff" d="M0 0h20v20H0z"/></clipPath></defs></svg>
